X: 6298
T: Carraigín Ruadh
R: reel
M: 4/4
K: Dmajor
dfff eBdB|AFFF EDB,D|ABAF DEFA|(3Bcd ed cA A2|
fffd eBdB|AFFF EDB,D|B,EEE DEFA|1 dBAG FDBc:|2 dBAG FD D2||
faaa afde|faaa bfaf|gfef gbaf|gfed BAFA|
[1 faaa afde|faaa bfaf|gfef ggag|fgeg fd d2:|
[2 g3b afde|f3 d eBBB|cded BAFA|dBAG FD D2||

